img/service-delivery__02.svg

<svg width="60" height="60" viewBox="0 0 60 60" fill="none" xmlns="http://www.w3.org/2000/svg">
<path d="M8.42086 48.9977L14.0625 51.8181V58.8281C14.0625 59.4754 14.5873 60 15.2344 60H27.6562C28.3034 60 28.8281 59.4754 28.8281 58.8281V42.8262C28.8281 39.2359 26.1348 36.2584 22.5714 35.9012C22.5575 35.8973 17.6143 35.1257 15.321 32.8322L12.6892 30.2016C11.8037 29.3159 10.6267 28.8281 9.375 28.8281V19.4531C9.375 16.8684 7.27219 14.7656 4.6875 14.7656C2.10281 14.7656 0 16.8684 0 19.4531V35.3719C0 41.1389 3.25758 46.4155 8.42086 48.9977ZM2.34375 19.4531C2.34375 18.1608 3.39516 17.1094 4.6875 17.1094C5.97984 17.1094 7.03125 18.1608 7.03125 19.4531V29.4564C5.60203 30.2828 4.6875 31.8236 4.6875 33.5156C4.6875 34.7672 5.17523 35.9441 6.06082 36.8297L12.062 42.832C12.5194 43.2896 13.2615 43.2899 13.7193 42.8321C14.1769 42.3745 14.177 41.6326 13.7194 41.1749L7.7182 35.1724C7.27523 34.7296 7.03125 34.1412 7.03125 33.5156C7.03125 32.5238 7.65902 31.6355 8.59359 31.3054C8.59395 31.3052 8.5943 31.305 8.59465 31.3049H8.59477C9.40289 31.0185 10.3616 31.1884 11.0321 31.8589L13.6639 34.4897C16.3811 37.2067 22.3174 38.2291 22.3293 38.2324C24.6981 38.4698 26.4844 40.4448 26.4844 42.8262V57.6562H16.4062V51.0938C16.4062 50.6498 16.1554 50.244 15.7584 50.0456L9.4691 46.9015C5.0741 44.7034 2.34375 40.2855 2.34375 35.3719V19.4531Z" fill="#F04E23"/>
<path d="M15.9375 28.8281H44.0625C44.7096 28.8281 45.2344 28.3035 45.2344 27.6562V1.17188C45.2344 0.524648 44.7096 0 44.0625 0H15.9375C15.2904 0 14.7656 0.524648 14.7656 1.17188V27.6562C14.7656 28.3035 15.2904 28.8281 15.9375 28.8281ZM26.4844 2.34375H33.5156V8.65934L30.4717 7.15289C30.1412 6.98918 29.7526 6.99094 29.4236 7.15723L26.4844 8.64199V2.34375ZM17.1094 2.34375H24.1406V10.5469C24.1406 10.9539 24.3518 11.3318 24.6986 11.5451C25.0451 11.7582 25.4777 11.7764 25.8409 11.5929L29.9573 9.5134L34.1678 11.5972C34.5247 11.7739 34.9555 11.76 35.3057 11.5425C35.65 11.3286 35.8594 10.9521 35.8594 10.5469V2.34375H42.8906V26.4844H17.1094V2.34375Z" fill="#F04E23"/>
<path d="M39.375 20.625H32.3438C31.6966 20.625 31.1719 21.1496 31.1719 21.7969C31.1719 22.4441 31.6966 22.9688 32.3438 22.9688H39.375C40.0221 22.9688 40.5469 22.4441 40.5469 21.7969C40.5469 21.1496 40.0221 20.625 39.375 20.625Z" fill="#F04E23"/>
<path d="M53.7891 47.3438C54.4363 47.3438 54.9609 46.8191 54.9609 46.1719C54.9609 45.5247 54.4363 45 53.7891 45C53.1419 45 52.6172 45.5247 52.6172 46.1719C52.6172 46.8191 53.1419 47.3438 53.7891 47.3438Z" fill="#F04E23"/>
<path d="M55.3125 14.7656C52.7278 14.7656 50.625 16.8684 50.625 19.4531V28.8281C49.3733 28.8281 48.1963 29.3159 47.3111 30.2012L44.6788 32.8323C43.2374 34.2738 39.5859 35.6843 37.5154 35.8918L37.4371 35.9003C33.8652 36.2584 31.1719 39.2359 31.1719 42.8262V58.8281C31.1719 59.4754 31.6966 60 32.3438 60H44.7656C45.4127 60 45.9375 59.4754 45.9375 58.8281V51.8181L49.773 49.9007C50.3518 49.6112 50.5866 48.9074 50.2972 48.3284C50.0079 47.7497 49.3042 47.5148 48.725 47.8042L44.2416 50.0454C43.8447 50.244 43.5938 50.6498 43.5938 51.0938V57.6562H33.5156V42.8262C33.5156 40.4448 35.3019 38.4698 37.6792 38.2315L37.7576 38.223C40.2995 37.9682 44.5082 36.3173 46.3358 34.4898L48.9681 31.8587C49.6389 31.1879 50.5985 31.0189 51.4052 31.3049H51.4054C51.4057 31.305 51.4061 31.3052 51.4064 31.3054C53.0202 31.8755 53.5061 33.948 52.2819 35.1727L46.2807 41.175C45.8231 41.6327 45.8232 42.3747 46.2809 42.8323C46.7384 43.2898 47.4805 43.2899 47.9381 42.8321L53.9393 36.8298C56.1057 34.663 55.6545 31.0092 52.9689 29.4564V19.4531C52.9689 18.1608 54.0203 17.1094 55.3126 17.1094C56.605 17.1094 57.6564 18.1608 57.6564 19.4531V35.3719C57.6564 37.5159 57.1153 39.6445 56.0916 41.5275C55.7823 42.0961 55.9927 42.8077 56.5614 43.1168C57.1298 43.4257 57.8415 43.2156 58.1507 42.647C59.3605 40.4216 60 37.9058 60 35.3719V19.4531C60 16.8684 57.8972 14.7656 55.3125 14.7656Z" fill="#F04E23"/>
</svg>

<svg width="60" height="60" fill="none" xmlns="http://www.w3.org/2000/svg"><path d="M8.42 48.998l5.643 2.82v7.01c0 .647.524 1.172 1.171 1.172h12.422c.647 0 1.172-.525 1.172-1.172V42.826a6.936 6.936 0 00-6.257-6.925c-.014-.004-4.957-.775-7.25-3.069l-2.632-2.63a4.656 4.656 0 00-3.314-1.374v-9.375a4.693 4.693 0 00-4.688-4.687A4.693 4.693 0 000 19.453v15.919a15.235 15.235 0 008.42 13.626zM2.345 19.453a2.346 2.346 0 012.344-2.344 2.346 2.346 0 012.343 2.344v10.003a4.697 4.697 0 00-2.343 4.06c0 1.251.487 2.428 1.373 3.314l6.001 6.002a1.172 1.172 0 101.657-1.657l-6-6.003a2.328 2.328 0 01-.688-1.656c0-.992.628-1.88 1.563-2.21v-.001a2.34 2.34 0 012.438.554l2.632 2.63c2.717 2.718 8.653 3.74 8.665 3.743a4.602 4.602 0 014.155 4.594v14.83H16.406v-6.562c0-.444-.25-.85-.648-1.048L9.47 46.9a12.821 12.821 0 01-7.125-11.53V19.454z" fill="#F04E23"/><path d="M15.938 28.828h28.124c.648 0 1.172-.524 1.172-1.172V1.172C45.234.525 44.71 0 44.062 0H15.939c-.648 0-1.172.525-1.172 1.172v26.484a1.17 1.17 0 001.171 1.172zM26.483 2.344h7.032v6.315l-3.044-1.506a1.171 1.171 0 00-1.048.004l-2.94 1.485V2.344zm-9.375 0h7.032v8.203a1.172 1.172 0 001.7 1.046l4.116-2.08 4.21 2.084a1.172 1.172 0 001.692-1.05V2.344h7.032v24.14H17.109V2.344z" fill="#F04E23"/><path d="M39.375 20.625h-7.031a1.172 1.172 0 100 2.344h7.031a1.172 1.172 0 000-2.344zM53.79 47.344A1.172 1.172 0 1053.788 45a1.172 1.172 0 000 2.344z" fill="#F04E23"/><path d="M55.313 14.766a4.693 4.693 0 00-4.688 4.687v9.375a4.656 4.656 0 00-3.314 1.373l-2.632 2.631c-1.442 1.442-5.093 2.852-7.164 3.06l-.078.008a6.939 6.939 0 00-6.265 6.926v16.002c0 .647.525 1.172 1.172 1.172h12.422c.647 0 1.172-.525 1.172-1.172v-7.01l3.835-1.917a1.172 1.172 0 00-1.048-2.097l-4.483 2.241a1.172 1.172 0 00-.648 1.049v6.562H33.516v-14.83a4.604 4.604 0 014.163-4.595l.079-.008c2.541-.255 6.75-1.906 8.578-3.733l2.632-2.631a2.34 2.34 0 012.437-.554h.001c1.614.57 2.1 2.643.876 3.868l-6.001 6.002a1.172 1.172 0 001.657 1.657l6.001-6.002c2.167-2.167 1.715-5.82-.97-7.374V19.453a2.346 2.346 0 012.344-2.344 2.346 2.346 0 012.343 2.344v15.919c0 2.144-.54 4.273-1.564 6.156a1.172 1.172 0 102.059 1.119A15.278 15.278 0 0060 35.372V19.453a4.693 4.693 0 00-4.688-4.687z" fill="#F04E23"/></svg>
